X: 118
T:Irish Trott,The. HA.117
M:6/4
L:1/4
Q:160
S:Henry Atkinson's original MS,Hartburn,N'umberland,1694.
O:England
A:Hartburn,Northumberland
H:1/4
Z:vmp.Chris Partington.Jan.2004
K:G
d|e>fg g>ag|e>fg g>ag|f>gf e>fe|d>ed f2:|!
|:d|ece ece|ece ece|fdf e(d/c/) (B/A/)|d2d f2:|]
